X:47
T:Tipperty's Jean
M:6/8
L:1/8
C:J. Scott Skinner
R:Jig
K:D
A|"D"FAA ABc|"D"dAA "D7"A2d|"G"GBB Bcd|"A7"e3 e2A|"D"f2f "A7"efe|"D"dAA
Adc|!
"G"Bed "A7"cBA|"D"d3 d2:||A|"D"dfa afd|"Em"egb bge|"D"fed dcd|"A7"e3 e2
A|!
"D"dfa afd|"Em"egb bge|"D"afd "A7"cBc|"D"d3 d3:||F|"Bm"BBB Bcd|"F#7"cFF
F2F|!
"Bm"BBB Bcd|"F#7"c3 c2F|"Bm"f2f efe|"D"dAA Adc|"G"Bed "A7"cBc|"D"d3 d2F|
"Bm"FBB Bcd|!
"F#7"cFF F2F|"Bm"BBB Bcd|"F#7"c3 c2F|"Bm"fff "A7"efe|"D"dAA Aag|"G"fed "
A7"cBc|"D"d3 d2||
